X:1
T:Lady Wallace [1]
L:1/8
M:4/4
I:linebreak $
K:Gmin
V:1 treble 
V:1
 d | (B/A/G) (G,G)B,G G,d | cfdB AFfc | B/A/G (G,G)B,G G,d | cD (d/c/B/A/) BGG :| g |$ %6
 (b/a/g) (Gd) gdbg | afc>B AFaf | (g^fg)d Bdgb | a^fdf g/g/g g>a | bgda gecg |$ fBgB AFfc | %12
 d(BAG) e(cBA) | dD (d/c/B/A/) BGG || %14
